Mono Glyph Icons/misc/misc-unfilled/table.svg

<svg height="48" viewBox="0 -960 960 960" width="48" xmlns="http://www.w3.org/2000/svg"><path d="m95-189v-582q0-40.21 27.1-67.61 27.1-27.39 66.9-27.39h582q40.21 0 67.61 27.39 27.39 27.4 27.39 67.61v582q0 39.8-27.39 66.9-27.4 27.1-67.61 27.1h-582q-39.8 0-66.9-27.1-27.1-27.1-27.1-66.9zm94-444h582v-138h-582zm214 222h154v-162h-154zm0 222h154v-162h-154zm-214-222h154v-162h-154zm428 0h154v-162h-154zm-428 222h154v-162h-154zm428 0h154v-162h-154z"/></svg>

<svg xmlns="http://www.w3.org/2000/svg" height="48" viewBox="0 -960 960 960" width="48"><path d="M95-189v-582q0-40.21 27.1-67.61Q149.2-866 189-866h582q40.21 0 67.61 27.39Q866-811.21 866-771v582q0 39.8-27.39 66.9Q811.21-95 771-95H189q-39.8 0-66.9-27.1Q95-149.2 95-189Zm94-444h582v-138H189v138Zm214 222h154v-162H403v162Zm0 222h154v-162H403v162ZM189-411h154v-162H189v162Zm428 0h154v-162H617v162ZM189-189h154v-162H189v162Zm428 0h154v-162H617v162Z"/></svg>
